public/images/img-note.svg

<svg fill="none" height="32" viewBox="0 0 32 32" width="32" xmlns="http://www.w3.org/2000/svg" xmlns:xlink="http://www.w3.org/1999/xlink"><linearGradient id="a" gradientUnits="userSpaceOnUse" x1="16" x2="16" y1="7.77734" y2="24.8885"><stop offset="0" stop-color="#8ce6e3"/><stop offset="1" stop-color="#09d5c0"/></linearGradient><rect fill="#c7f2eb" height="32" rx="8" width="32"/><path d="m9 9.3329c0-.85911.69645-1.55556 1.5556-1.55556h10.8888c.8592 0 1.5556.69645 1.5556 1.55556v14c0 .8591-.6964 1.5556-1.5556 1.5556h-10.8888c-.85915 0-1.5556-.6965-1.5556-1.5556z" fill="url(#a)"/><path d="m9 9.3329c0-.85911.69645-1.55556 1.5556-1.55556h10.8888c.8592 0 1.5556.69645 1.5556 1.55556v2.3333h-14z" fill="#fff"/><g fill="#0e959d"><path d="m11.333 14h9.3333v1.5556h-9.3333z"/><path d="m11.333 17.1113h9.3333v1.5556h-9.3333z"/><path d="m11.333 20.2227h9.3333v1.5555h-9.3333z"/></g><path d="m19.8892 7c.4296 0 .7778.34822.7778.77778v.77778c0 .42955-.3482.77777-.7778.77777-.4295 0-.7778-.34822-.7778-.77777v-.77778c0-.42956.3483-.77778.7778-.77778z" fill="#5ebabf"/><path d="m15.9996 7c.4295 0 .7777.34822.7777.77778v.77778c0 .42955-.3482.77777-.7777.77777-.4296 0-.7778-.34822-.7778-.77777v-.77778c0-.42956.3482-.77778.7778-.77778z" fill="#5ebabf"/><path d="m12.1109 7c.4295 0 .7778.34822.7778.77778v.77778c0 .42955-.3483.77777-.7778.77777-.4296 0-.7778-.34822-.7778-.77777v-.77778c0-.42956.3482-.77778.7778-.77778z" fill="#5ebabf"/></svg>

<svg width="32" height="32" viewBox="0 0 32 32" fill="none" xmlns="http://www.w3.org/2000/svg">
<rect width="32" height="32" rx="8" fill="#C7F2EB"/>
<path d="M9 9.3329C9 8.47379 9.69645 7.77734 10.5556 7.77734H21.4444C22.3036 7.77734 23 8.47379 23 9.3329V23.3329C23 24.192 22.3036 24.8885 21.4444 24.8885H10.5556C9.69645 24.8885 9 24.192 9 23.3329V9.3329Z" fill="url(#paint0_linear_17597_50823)"/>
<path d="M9 9.3329C9 8.47379 9.69645 7.77734 10.5556 7.77734H21.4444C22.3036 7.77734 23 8.47379 23 9.3329V11.6662H9V9.3329Z" fill="white"/>
<path d="M11.333 14H20.6663V15.5556H11.333V14Z" fill="#0E959D"/>
<path d="M11.333 17.1113H20.6663V18.6669H11.333V17.1113Z" fill="#0E959D"/>
<path d="M11.333 20.2227H20.6663V21.7782H11.333V20.2227Z" fill="#0E959D"/>
<path d="M19.8892 7C20.3188 7 20.667 7.34822 20.667 7.77778L20.667 8.55556C20.667 8.98511 20.3188 9.33333 19.8892 9.33333C19.4597 9.33333 19.1114 8.98511 19.1114 8.55556L19.1114 7.77778C19.1114 7.34822 19.4597 7 19.8892 7Z" fill="#5EBABF"/>
<path d="M15.9996 7C16.4291 7 16.7773 7.34822 16.7773 7.77778L16.7773 8.55556C16.7773 8.98511 16.4291 9.33333 15.9996 9.33333C15.57 9.33333 15.2218 8.98511 15.2218 8.55556L15.2218 7.77778C15.2218 7.34822 15.57 7 15.9996 7Z" fill="#5EBABF"/>
<path d="M12.1109 7C12.5404 7 12.8887 7.34822 12.8887 7.77778L12.8887 8.55556C12.8887 8.98511 12.5404 9.33333 12.1109 9.33333C11.6813 9.33333 11.3331 8.98511 11.3331 8.55556L11.3331 7.77778C11.3331 7.34822 11.6813 7 12.1109 7Z" fill="#5EBABF"/>
<defs>
<linearGradient id="paint0_linear_17597_50823" x1="16" y1="7.77734" x2="16" y2="24.8885" gradientUnits="userSpaceOnUse">
<stop stop-color="#8CE6E3"/>
<stop offset="1" stop-color="#09D5C0"/>
</linearGradient>
</defs>
</svg>
